X: 1628
T: Rüzgâr Söylüyor Şimdi
C: Şekip Ayhan Özışık
O: Turkey
F: http://compmusic.upf.edu/node/140
N: muhayyerkurdi--sarki--duyek--ruzgar_soyluyor--sekip_ayhan_ozisik
N: makam= muhayyerkurdi
N: form= sarki
N: usul= duyek = 8/4
M: 8/4
L: 1/16
K: C _B   
Q: 1/4=120
%%MIDI tuningsystem comma53
a4 b4 a2 gf g2 a2  | a6 d'2 c'4 b4  | \
w:  Rüz gâr  söy *  *  lü  |  yor  *  şim di   | 
a2 g2 f2 e2 d2 {f}ed c=B c2  | 
w:  o  yer *  *  ler *  *  *  de   | 
a2 b4 a2 ag g^3/4f g4  | z2 a2 b2 c'2 a2 b2 g2 ba  | \
w:  bi zim_ *  es *  *  *  ki   |  şar *  *  kı *  mı  | 
a8 c'b ba b4  | 
w:  zı  ah   | 
z2 c'2 d'2 e'2 c'2 b2 a2 g2  | a6 g2 fe fg a2 g/a/b/c'/  | \
w:  şar *  *  kı *  mı  |  zı    SAZ  | 
d'2 c'2 d'2 e'2 c'2 b2 a2 g2  | 
w:   | 
a6 gf ed cB A4  | a4 b4 a2 gf g2 a2  | \
w:  SAZ  |  Rüz gâr  söy *  *  lü  | 
a6 d'2 c'4 b4  | a2 g2 f2 e2 d2 {f}ed c=B c2  | 
w:  yor  *  şim di   |  o  yer *  *  ler *  *  *  de   | 
a2 b4 a2 ag g^3/4f g4  | z2 a2 b2 c'2 a2 b2 g2 ba  | \
w:  bi zim_ *  es *  *  *  ki   |  şar *  *  kı *  mı  | 
a8 c'b ba b4  | 
w:  zı  ah   | 
z2 c'2 d'2 e'2 c'2 b2 a2 g2  | a6 g2 fe fg a2 g/a/b/c'/  | \
w:  şar *  *  kı *  mı  |  zı    SAZ  | 
d'2 c'2 d'2 e'2 c'2 b2 a2 g2  | 
w:   | 
a6 ab ag fg a4  | a4 d'4 c'2 d'2 e'd' d'c'  | \
w:  SAZ  |  Vaz geç  söy *  le *  me   | 
c'8 e'8  | d'2 c'4 b2 a2 g2 f2 e2  | 
w:  ar tık   |  ha tır *  lat *  ma  o   | 
d4 ed c_1/4B c2 de ^1/4fg ac'  | b2 b2 a2 g2 f2 e2 fe fd  | 
w:  ma zi *  de *  ki  SAZ  |  *  aş *  *  kı *  mı  | 
c8 e4 (3ede (3fed  | c2 c2 d2 e2 c2 B2 A2 G2  | \
w:  zı  ah  SAZ  |  *  aş *  *  kı *  mı  | 
A6 G2 FE FG A2 G/A/B/c/  | 
w:  zı   SAZ  | 
d2 c2 d2 e2 c2 B2 A2 G2  | A6 Bc de fg a4  | \
w:   |  SAZ  | 
a4 d'4 c'2 d'2 e'd' d'c'  | 
w:  Vaz geç  söy *  le *  me   | 
c'8 e'8  | d'2 c'4 b2 a2 g2 f2 e2  | \
w:  ar tık   |  ha tır *  lat *  ma  o   | 
d4 ed c_1/4B c2 de ^1/4fg ac'  | 
w:  ma zi *  de *  ki  SAZ  | 
b2 b2 a2 g2 f2 e2 fe fd  | c8 e4 (3ede (3fed  | \
w:  *  aş *  *  kı *  mı  |  zı  ah  SAZ  | 
c2 c2 d2 e2 c2 B2 A2 G2  | 
w:  *  aş *  *  kı *  mı  | 
A6 G2 FE FG A2 G/A/B/c/  | d2 c2 d2 e2 c2 B2 A2 G2  | \
w:  zı   SAZ  |   | 
A6 c'2 =bc' d'b c'4  | 
w:  SAZ  | 
c'4 =b4 a2 g4 f2  | _1/4e3d _7/8ed c_1/4B c8  | \
w:  Bir  kış  gü nüy dü   |  baş *  la *  *  *  dı   | 
G2 G2 c4 e4 g4  | z2 c'4 =bd' c'b a^g a4  | 
w:  bu  ha zin   |  mâ ce *  ra *  *  *  sı   | 
z2 a2 b2 c'2 a2 b2 g2 ba  | a8 c'b ba b4  | \
w:  öm *  *  rü *  mü  |  zün  ah   | 
z2 c'2 d'2 e'2 c'2 b2 a2 g2  | 
w:  öm *  *  rü *  mü  | 
a6 g2 fe fg a2 g/a/b/c'/  | d'2 c'2 d'2 e'2 c'2 b2 a2 g2  | \
w:  zün   SAZ  |   | 
a6 ab ag fg a4  | 
w:   | 
a4 d'4 c'2 d'2 e'd' d'c'  | c'8 e'8  | \
w:  Vaz geç  söy *  le *  me   |  ar tık   | 
d'2 c'4 b2 a2 g2 f2 e2  | d4 ed c_1/4B c2 de ^1/4fg ac'  | 
w:  ha tır *  lat *  ma  o   |  ma zi *  de *  ki  SAZ  | 
b2 b2 a2 g2 f2 e2 fe fd  | c8 e4 (3ede (3fed  | \
w:  *  aş *  *  kı *  mı  |  zı  ah  SAZ  | 
c2 c2 d2 e2 c2 B2 A2 G2  | 
w:  *  aş *  *  kı *  mı  | 
A6 |
w:  zı    | 


